X: 43
T:Bora Dance 
O:Israel /Turkey
F: http://www.youtube.com/watch?v=PJcrvEWzsKQ
M:2/4
L:1/8
K:Bbdor
V:1
%%MIDI program 66
%%MIDI bassprog 43
%%MIDI chordprog 32
Q:1/4=180
|B2F2|B2F2 |A2Bc|B2_AG|
B2F2|B2F2 |A2Bc|B2_AG|
%%%MIDI drum dddd 40 36 35 36
B2F2|B2F2 |A2Bc|B2_AG|
c2cc|cBcd |c2B2|z4|
%%%MIDI drum dz2ddzd2 65 50 50 45  90 90 90 90
cde2|f2ff |f2ff|f2z2 |
c2e2|c2cc |c2BB|B2z2|:
cde2|f2ff |f2ff|f2z2 |
c2e2|c2cc |c2BB|B2z2 :|
B4- |B2A2 |B4  |B2c2 |
d4  |=B2A2|A4- |A4   |
A4  |A2B2 |=B4 |B2A2 |B4-|B4|
V:3 name=drum clef=perc stafflines=4
L:1/4
%%MIDI channel 10
|zz |zz |zz |zz |
zz |zz |zz |zz |
L:1/8
%%MIDI drummap F 35 % Acoustic Bass Drum
%%MIDI drummap A 40 % Electric Snare
%%MIDI drummap c 36 % Bass Drum 1
AcFc |AcFc |AcFc |AcFc |
AAAA |A2A2 |A4 |z4 |
L:1/16
%%MIDI drummap F 45 % Low Tom
%%MIDI drummap c 50 % High Tom
%%MIDI drummap A 65 % High Timbale
Az2cczF2 |Az2cczF2 |Az2cczF2 |Az2cczF2 |
Az2cczF2 |c4c4 |c4c4 |c8|:
Az2cczF2 |Az2cczF2 |Az2cczF2 |Az2cczF2 |
Az2cczF2 |c4c4 |c4c4 |c8:|
Az2cczF2 |Az2cczF2 |Az2cczF2 |Az2cczF2 |
Az2cczF2 |Az2cczF2 |Az2cczF2 |Az2cczF2 |
Az2cczF2 |Az2cczF2 |Az2cczF2 |Az2cczF2 |Az2cczF2 |Az2cczF2 |



